X:12
T: Es taget minnecliche
N: A0017
O: Europa, Mitteleuropa, Deutschland, Niederdeutschland
N: Melodie: Strassburger Hs.(1421),121 Bl. 128b
R: Romanze, Ballade, Lied
M: 3/2
L: 1/4
K: G
G2 | G4c2 | B4A2 | c2d2B2 | A4
e2 | d4d2 | B4B2 | c2d2B2 | A4
G2 | B4c2 | d4e2 | d2cBA2 | G4
A2 | d4c2 | B4A2 | G4

@@@ Tune index: 12
